img/brand_visual_tree1.svg

<svg width="108" height="200" viewBox="0 0 108 200" fill="none" xmlns="http://www.w3.org/2000/svg">
<g clip-path="url(#clip0)">
<path d="M60.6593 200H47.9991L52.2866 96.5884L54.3292 94.3141L60.6593 200Z" fill="#FF886D"/>
<path d="M42.3355 0C16.3821 0 -1.85703 20.1395 11.0142 41.8178C13.9007 46.6709 17.6734 51.5663 17.5975 57.2226C17.5215 62.8789 13.082 67.4445 9.54559 71.9171C1.83131 81.6487 -6.38095 103.285 7.49464 122.494C20.3574 140.292 40.2171 143.631 61.5537 141.577C96.344 138.195 105.037 122.131 107.561 105.162C109.899 89.4695 102.885 74.2422 83.5825 64.164C79.9954 62.287 76.2564 60.0803 74.3743 56.4955C70.8463 49.7316 75.9273 41.8854 76.9063 34.3437C79.278 15.6922 67.1158 0 42.3355 0Z" fill="#00B28C"/>
<path d="M23.2526 20.8835C22.0963 20.8835 19.9778 21.8389 21.4126 24.2655C23.0585 27.0556 26.1644 28.6874 29.2029 29.8457C30.4267 30.3107 32.4017 30.2177 32.4017 28.9072C32.4017 26.4215 27.5655 20.8835 23.2526 20.8835Z" fill="#009375"/>
<path d="M65.0903 31.0717C65.0397 29.9218 63.9847 27.8419 61.6468 29.3807C58.9459 31.1647 57.4267 34.3691 56.4392 37.4466C56.0256 38.6895 56.2113 40.668 57.5195 40.6003C60.0009 40.4904 65.2929 35.3837 65.0903 31.0717Z" fill="#009375"/>
<path d="M48.3535 8.63242C47.7205 7.66856 45.7624 6.41724 44.5386 8.94525C43.1291 11.8368 43.4752 15.3879 44.1757 18.5415C44.4542 19.8182 45.6274 21.4246 46.7077 20.706C48.7924 19.3363 50.7337 12.2342 48.3535 8.63242Z" fill="#009375"/>
<path d="M42.6649 57.6622C41.6774 57.0704 39.3648 56.8167 39.3564 59.6069C39.3564 62.8451 41.1879 65.8719 43.1882 68.4084C44.0322 69.4399 45.7202 70.3784 46.4123 69.2539C47.6868 67.1148 46.3617 59.869 42.6649 57.6622Z" fill="#009375"/>
<path d="M87.4651 97.8483C87.2204 96.7238 85.8531 94.8468 83.7937 96.7491C81.4135 98.9389 80.4176 102.355 79.9534 105.551C79.7508 106.844 80.2488 108.764 81.5317 108.493C83.9625 107.977 88.3598 102.076 87.4651 97.8483Z" fill="#009375"/>
<path d="M42.4117 116.457C41.3989 115.908 39.0356 115.739 39.196 118.546C39.331 121.784 41.306 124.718 43.4161 127.17C44.2601 128.159 46.0578 129.021 46.6824 127.863C47.8556 125.673 46.2097 118.495 42.4117 116.457Z" fill="#009375"/>
<path d="M70.8381 123.729C70.3486 122.689 68.5846 121.192 67.0147 123.5C65.2001 126.181 65.0397 129.715 65.276 132.944C65.3773 134.246 66.3057 136.005 67.4873 135.481C69.7324 134.432 72.678 127.669 70.8381 123.729Z" fill="#009375"/>
<path d="M47.5855 92.8345C46.4545 92.6569 44.2094 93.2741 45.256 95.8782C46.4545 98.8797 49.2988 100.951 52.101 102.6C53.2404 103.251 55.2069 103.445 55.4095 102.169C55.7893 99.7083 51.8478 93.494 47.5855 92.8345Z" fill="#009375"/>
<path d="M15.4961 99.869C14.3482 99.962 12.3057 101.07 13.9178 103.369C15.7662 106.024 18.9819 107.436 22.1047 108.358C23.3623 108.73 25.3288 108.484 25.2276 107.182C25.0419 104.705 19.7921 99.5477 15.4961 99.869Z" fill="#009375"/>
<path d="M70.5764 74.4621C70.0616 73.4306 68.2554 71.9256 66.7446 74.3268C64.989 77.0493 64.9215 80.5919 65.2422 83.8132C65.3773 85.1152 66.3479 86.8485 67.5126 86.2566C69.7324 85.1406 72.5092 78.326 70.5764 74.4621Z" fill="#009375"/>
<path d="M24.1557 73.3038C23.1091 72.8218 20.7796 72.8049 21.0835 75.595C21.4211 78.8163 23.6155 81.6234 25.8437 83.9315C26.7552 84.87 28.5952 85.6225 29.1438 84.4135C30.1735 82.156 28.0803 75.0962 24.1557 73.3038Z" fill="#009375"/>
</g>
<defs>
<clipPath id="clip0">
<rect width="108" height="200" fill="white"/>
</clipPath>
</defs>
</svg>

<svg xmlns="http://www.w3.org/2000/svg" width="108" height="200" fill="none" xmlns:v="https://vecta.io/nano"><g clip-path="url(#A)"><path d="M60.659 200h-12.66l4.288-103.412 2.043-2.274L60.659 200z" fill="#ff886d"/><path d="M42.336 0C16.382 0-1.857 20.14 11.014 41.818c2.887 4.853 6.659 9.749 6.583 15.405s-4.515 10.222-8.052 14.695c-7.714 9.732-15.927 31.368-2.051 50.577 12.863 17.798 32.722 21.137 54.059 19.083 34.79-3.382 43.483-19.446 46.007-36.415 2.338-15.693-4.676-30.92-23.979-40.998-3.587-1.877-7.326-4.084-9.208-7.669-3.528-6.764 1.553-14.61 2.532-22.152C79.278 15.692 67.116 0 42.336 0z" fill="#00b28c"/><g fill="#009375"><path d="M23.253 20.884c-1.156 0-3.275.955-1.84 3.382 1.646 2.79 4.752 4.422 7.79 5.58 1.224.465 3.199.372 3.199-.939 0-2.486-4.836-8.024-9.149-8.024zM65.09 31.072c-.051-1.15-1.106-3.23-3.443-1.691-2.701 1.784-4.22 4.988-5.208 8.066-.414 1.243-.228 3.221 1.08 3.154 2.481-.11 7.773-5.217 7.571-9.529zM48.354 8.632c-.633-.964-2.591-2.215-3.815.313-1.41 2.892-1.063 6.443-.363 9.596.279 1.277 1.452 2.883 2.532 2.165 2.085-1.37 4.026-8.472 1.646-12.074zm-5.689 49.03c-.988-.592-3.3-.846-3.309 1.945 0 3.238 1.831 6.265 3.832 8.801.844 1.031 2.532 1.97 3.224.846 1.274-2.139-.051-9.385-3.747-11.592zm44.8 40.186c-.245-1.124-1.612-3.001-3.671-1.099-2.38 2.19-3.376 5.606-3.84 8.802-.203 1.293.295 3.213 1.578 2.942 2.431-.516 6.828-6.417 5.933-10.645zm-45.053 18.609c-1.013-.549-3.376-.718-3.216 2.089.135 3.238 2.11 6.172 4.22 8.624.844.989 2.642 1.851 3.266.693 1.173-2.19-.473-9.368-4.271-11.406zm28.426 7.272c-.489-1.04-2.254-2.537-3.823-.229-1.815 2.681-1.975 6.215-1.739 9.444.101 1.302 1.03 3.061 2.211 2.537 2.245-1.049 5.191-7.812 3.351-11.752zM47.586 92.835c-1.131-.178-3.376.44-2.33 3.044 1.199 3.001 4.043 5.073 6.845 6.722 1.139.651 3.106.845 3.309-.431.38-2.461-3.562-8.675-7.824-9.334zm-32.09 7.034c-1.148.093-3.19 1.201-1.578 3.5 1.848 2.655 5.064 4.067 8.187 4.989 1.258.372 3.224.126 3.123-1.176-.186-2.477-5.435-7.634-9.731-7.313zm55.08-25.407c-.515-1.032-2.321-2.537-3.832-.135-1.756 2.722-1.823 6.265-1.502 9.486.135 1.302 1.106 3.035 2.27 2.443 2.22-1.116 4.997-7.931 3.064-11.794zm-46.42-1.158c-1.047-.482-3.376-.499-3.072 2.291.338 3.221 2.532 6.028 4.76 8.337.912.939 2.752 1.691 3.3.482 1.03-2.257-1.063-9.317-4.988-11.11z"/></g></g><defs><clipPath id="A"><path fill="#fff" d="M0 0h108v200H0z"/></clipPath></defs></svg>
